TV/Source/DMAX.svg

<svg height="137.73pt" viewBox="0 0 595.84033 137.73" width="595.84033pt" xmlns="http://www.w3.org/2000/svg"><g fill="#bc0e0f"><path d="m277.4593 2.63018-52.08955.5303157-16.75962 7.3695843-11.39763 39.251915-16.39338-46.331495-51.46875.48046v-.001l-9.75 6.99023 2.90918 122.40088 10.70068 2.77002 150.11865.12891zm-71.58252 71.63965.0322.0879v.003z"/><path d="m367.99116 2.53981-36.44092.041-25.98926 7.80908-24.5039 74.15771 2.27344 51.67237 3.98998.25077 137.97096.0393z"/><path d="m489.05922-.000467-84.06885 7.46045 35.19873 60.3999-22.73731 50.327637 7.29053 17.04199 69.99755 2.50049 101.09911-1.3711-39.65918-70.620107 27.18023-62.3291z"/></g><path d="m404.99037 7.46 84.07-7.46 36.30976 67.41025-30.62976 70.31975-69.99774-2.50025-7.29-17.0415 22.73774-50.32825z" fill="#7b0012"/><path d="m54.94376 134.35551c48.58645 0 66.11489-25.2746 66.11489-68.28989.8569-34.83152-23.36689-64.500675-61.46091-63.947755h-59.59774v132.229785h54.94113z" fill="#bc0e0f" fill-rule="evenodd" stroke-width="2.620487"/><g fill="#7b0012"><path d="m208.61037 10.53 16.75938-7.3695043-19.45938 71.1995043-8.69787-24.578005z"/><path d="m119.60037 10.92 9.75-6.99 3.86 132.16-10.7-2.77z"/><path d="m305.56037 10.39 25.99-7.81-44.22987 133.89074-3.99013-.25074-2.27329-51.67296z"/></g></svg>

<?xml version="1.0" encoding="UTF-8" standalone="no"?>
<svg
   xmlns:dc="http://purl.org/dc/elements/1.1/"
   xmlns:cc="http://creativecommons.org/ns#"
   xmlns:rdf="http://www.w3.org/1999/02/22-rdf-syntax-ns#"
   xmlns:svg="http://www.w3.org/2000/svg"
   xmlns="http://www.w3.org/2000/svg"
   xmlns:sodipodi="http://sodipodi.sourceforge.net/DTD/sodipodi-0.dtd"
   xmlns:inkscape="http://www.inkscape.org/namespaces/inkscape"
   width="595.84033pt"
   height="137.73pt"
   viewBox="0 0 595.84033 137.73"
   version="1.1"
   id="svg21"
   sodipodi:docname="DMAX.svg"
   inkscape:version="0.92.0 r15299">
  <metadata
     id="metadata27">
    <rdf:RDF>
      <cc:Work
         rdf:about="">
        <dc:format>image/svg+xml</dc:format>
        <dc:type
           rdf:resource="http://purl.org/dc/dcmitype/StillImage" />
        <dc:title />
      </cc:Work>
    </rdf:RDF>
  </metadata>
  <defs
     id="defs25" />
  <sodipodi:namedview
     pagecolor="#ffffff"
     bordercolor="#666666"
     borderopacity="1"
     objecttolerance="10"
     gridtolerance="10"
     guidetolerance="10"
     inkscape:pageopacity="0"
     inkscape:pageshadow="2"
     inkscape:window-width="1920"
     inkscape:window-height="1017"
     id="namedview23"
     showgrid="false"
     fit-margin-top="0"
     fit-margin-left="0"
     fit-margin-right="0"
     fit-margin-bottom="0"
     inkscape:zoom="1"
     inkscape:cx="357.59803"
     inkscape:cy="126.96664"
     inkscape:window-x="-8"
     inkscape:window-y="-8"
     inkscape:window-maximized="1"
     inkscape:current-layer="svg21" />
  <g
     id="#ffffffff"
     transform="translate(-175.07963,-89.15)" />
  <g
     id="g4514">
    <path
       sodipodi:nodetypes="cccccccccccccccc"
       inkscape:connector-curvature="0"
       id="path7-8"
       d="M 277.4593,2.63018 225.36975,3.1604957 208.61013,10.53008 197.2125,49.781995 180.81912,3.4505 129.35037,3.93096 v -10e-4 l -9.75,6.99023 2.90918,122.40088 10.70068,2.77002 150.11865,0.12891 z m -71.58252,71.63965 0.0322,0.0879 v 0.003 z"
       style="opacity:1;fill:#bc0e0f;fill-opacity:1;stroke-width:1" />
    <path
       sodipodi:nodetypes="cccccccc"
       inkscape:connector-curvature="0"
       id="path5-2"
       d="m 367.99116,2.53981 -36.44092,0.041 -25.98926,7.80908 -24.5039,74.15771 2.27344,51.67237 3.98998,0.25077 137.97096,0.0393 z"
       style="opacity:1;fill:#bc0e0f;fill-opacity:1;stroke-width:1" />
    <path
       inkscape:connector-curvature="0"
       id="path3-1"
       d="m 489.05922,-4.67e-4 -84.06885,7.46045 35.19873,60.3999 -22.73731,50.327637 7.29053,17.04199 69.99755,2.50049 101.09911,-1.3711 -39.65918,-70.620107 27.18023,-62.3291 z"
       style="opacity:1;fill:#bc0e0f;fill-opacity:1;stroke-width:1" />
    <path
       d="m 404.99037,7.46 84.07,-7.46 36.30976,67.41025 -30.62976,70.31975 -69.99774,-2.50025 -7.29,-17.0415 L 440.19037,67.86 Z"
       id="path3"
       inkscape:connector-curvature="0"
       style="opacity:1;fill:#7b0012"
       sodipodi:nodetypes="cccccccc" />
    <path
       sodipodi:nodetypes="ccccccc"
       id="path2"
       d="m 54.94376,134.35551 c 48.58645,0 66.11489,-25.2746 66.11489,-68.28989 C 121.91555,31.2341 97.69176,1.564945 59.59774,2.117865 H 0 V 134.34765 h 54.94113 z"
       style="fill:#bc0e0f;fill-opacity:1;fill-rule:evenodd;stroke-width:2.62048721"
       inkscape:connector-curvature="0" />
    <path
       d="M 208.61037,10.53 225.36975,3.1604957 205.91037,74.36 197.2125,49.781995 Z"
       id="path7"
       inkscape:connector-curvature="0"
       style="opacity:1;fill:#7b0012"
       sodipodi:nodetypes="ccccc" />
    <path
       d="m 119.60037,10.92 9.75,-6.99 3.86,132.16 -10.7,-2.77 z"
       id="path9"
       inkscape:connector-curvature="0"
       style="opacity:1;fill:#7b0012"
       sodipodi:nodetypes="ccccc" />
    <path
       d="m 305.56037,10.39 25.99,-7.81 -44.22987,133.89074 -3.99013,-0.25074 -2.27329,-51.67296 z"
       id="path5"
       inkscape:connector-curvature="0"
       style="opacity:1;fill:#7b0012"
       sodipodi:nodetypes="cccccc" />
  </g>
</svg>
